X: 8336
T: Cottar's Wife
R: reel
M: 4/4
K: Amixolydian
B|:A/A/A (ed) e2 (ag)|e2 gd BGGB|A/A/A ed e2 ag|e2 (dB) eAAB:|
|:A/A/A (a^g) a2 (b=g)|e2 gd BGGB|A/A/A a^g a2 b=g|e2 dB eAAB:|
{d}cAec A/A/A (ed)|cAec BGGB|cAec A/A/A ed|cABG A2 AB|
cAec A/A/A ed|cAec BGGB|cAec A/A/A (ae)|cAB^G A2 A||

